flaticon/household/chair-3.svg

<svg xmlns="http://www.w3.org/2000/svg" width="32" height="32" viewBox="0 0 24 24">
    <path d="M 21.738281 4.800781 C 20.164062 4.800781 18.683594 4.0625 17.675781 2.773438 C 16.300781 1.011719 14.234375 0 12 0 C 9.765625 0 7.699219 1.011719 6.324219 2.773438 C 5.316406 4.0625 3.835938 4.800781 2.261719 4.800781 C 1.675781 4.800781 1.199219 5.277344 1.199219 5.863281 L 1.199219 6 C 1.199219 6.214844 1.289062 6.421875 1.441406 6.574219 C 1.589844 6.722656 1.78125 6.800781 2 6.800781 C 2 9.855469 3.816406 12.488281 6.421875 13.695312 L 5.402344 22.777344 C 5.328125 23.066406 5.386719 23.363281 5.566406 23.605469 C 5.75 23.855469 6.039062 24 6.351562 24 L 6.742188 24 C 7.175781 24 7.550781 23.722656 7.679688 23.304688 L 8.203125 18.65625 L 12 16.460938 L 15.792969 18.65625 L 16.308594 23.234375 L 16.320312 23.304688 C 16.449219 23.722656 16.824219 24 17.257812 24 L 17.648438 24 C 17.960938 24 18.25 23.855469 18.433594 23.605469 C 18.613281 23.363281 18.671875 23.066406 18.597656 22.777344 L 17.578125 13.695312 C 20.183594 12.488281 21.996094 9.855469 21.988281 6.800781 C 22.21875 6.800781 22.410156 6.71875 22.5625 6.570312 C 22.714844 6.417969 22.800781 6.214844 22.800781 6 L 22.800781 5.863281 C 22.800781 5.277344 22.324219 4.800781 21.738281 4.800781 Z M 6.742188 23.199219 L 6.351562 23.199219 C 6.273438 23.199219 6.226562 23.15625 6.207031 23.128906 C 6.1875 23.101562 6.15625 23.046875 6.179688 22.96875 L 7.191406 14.007812 C 7.207031 14.011719 7.222656 14.011719 7.234375 14.019531 C 7.4375 14.085938 7.640625 14.140625 7.851562 14.1875 C 7.867188 14.191406 7.886719 14.199219 7.902344 14.203125 L 6.902344 23.097656 C 6.875 23.160156 6.8125 23.199219 6.742188 23.199219 Z M 8.316406 17.667969 L 8.667969 14.535156 L 11.203125 16 Z M 10.035156 14.398438 L 13.96875 14.398438 L 12 15.539062 Z M 12.796875 16 L 15.328125 14.535156 L 15.679688 17.667969 Z M 16.808594 14.007812 L 17.804688 22.898438 L 17.820312 22.972656 C 17.84375 23.046875 17.8125 23.101562 17.792969 23.128906 C 17.773438 23.15625 17.726562 23.199219 17.648438 23.199219 L 17.257812 23.199219 C 17.1875 23.199219 17.125 23.160156 17.097656 23.097656 L 16.097656 14.203125 C 16.117188 14.199219 16.132812 14.191406 16.148438 14.1875 C 16.359375 14.140625 16.5625 14.085938 16.765625 14.019531 C 16.777344 14.011719 16.792969 14.011719 16.808594 14.007812 Z M 22 6 C 21.789062 6.011719 21.589844 6.078125 21.4375 6.226562 C 21.289062 6.378906 21.199219 6.585938 21.199219 6.800781 C 21.199219 9.609375 19.484375 12.027344 17.046875 13.0625 L 17.039062 13.066406 C 16.988281 13.085938 16.9375 13.101562 16.886719 13.121094 C 16.703125 13.195312 16.519531 13.261719 16.324219 13.316406 C 16.308594 13.324219 16.292969 13.324219 16.277344 13.332031 C 16.054688 13.394531 15.828125 13.445312 15.59375 13.488281 C 15.207031 13.558594 14.808594 13.601562 14.398438 13.601562 L 9.601562 13.601562 C 9.191406 13.601562 8.792969 13.558594 8.40625 13.488281 C 8.171875 13.445312 7.945312 13.394531 7.722656 13.332031 C 7.707031 13.328125 7.691406 13.324219 7.675781 13.320312 C 7.480469 13.261719 7.296875 13.195312 7.113281 13.121094 C 7.0625 13.101562 7.011719 13.089844 6.960938 13.066406 L 6.953125 13.0625 C 4.515625 12.027344 2.800781 9.609375 2.800781 6.800781 C 2.800781 6.582031 2.714844 6.378906 2.5625 6.230469 C 2.410156 6.082031 2.210938 6 2.011719 6 C 2.007812 6 2.003906 6 2 6 L 2 5.863281 C 2 5.71875 2.117188 5.601562 2.261719 5.601562 C 4.085938 5.601562 5.796875 4.75 6.953125 3.265625 C 8.175781 1.699219 10.015625 0.800781 12 0.800781 C 13.984375 0.800781 15.824219 1.699219 17.046875 3.265625 C 18.203125 4.75 19.914062 5.601562 21.738281 5.601562 C 21.882812 5.601562 22 5.71875 22 5.863281 Z M 22 6"/>
    <path d="M 17.53125 8.855469 L 17.238281 8.792969 C 14.027344 8.105469 10.773438 8.105469 7.5625 8.792969 L 7.269531 8.855469 C 6.765625 8.964844 6.398438 9.414062 6.398438 9.929688 L 6.398438 10.503906 C 6.398438 10.835938 6.546875 11.144531 6.808594 11.355469 C 7.066406 11.566406 7.398438 11.644531 7.726562 11.574219 C 10.828125 10.910156 13.972656 10.910156 17.074219 11.574219 C 17.148438 11.59375 17.226562 11.601562 17.304688 11.601562 C 17.550781 11.601562 17.792969 11.515625 17.992188 11.355469 C 18.25 11.144531 18.398438 10.835938 18.398438 10.503906 L 18.398438 9.929688 C 18.398438 9.414062 18.035156 8.964844 17.53125 8.855469 Z M 17.601562 10.503906 C 17.601562 10.625 17.53125 10.699219 17.488281 10.734375 C 17.449219 10.765625 17.363281 10.820312 17.238281 10.792969 C 15.632812 10.449219 14.015625 10.277344 12.398438 10.277344 C 10.78125 10.277344 9.164062 10.449219 7.558594 10.792969 C 7.4375 10.820312 7.351562 10.765625 7.308594 10.734375 C 7.269531 10.699219 7.199219 10.625 7.199219 10.503906 L 7.199219 9.929688 C 7.199219 9.789062 7.300781 9.667969 7.4375 9.636719 L 7.726562 9.574219 C 10.828125 8.910156 13.972656 8.910156 17.070312 9.574219 L 17.363281 9.636719 C 17.5 9.667969 17.601562 9.789062 17.601562 9.929688 Z M 17.601562 10.503906"/>
</svg>

<svg xmlns="http://www.w3.org/2000/svg" width="32" height="32" viewBox="0 0 24 24">
    <path d="M21.738 4.8c-1.574 0-3.054-.737-4.062-2.027A7.154 7.154 0 0 0 12 0a7.154 7.154 0 0 0-5.676 2.773c-1.008 1.29-2.488 2.028-4.062 2.028-.586 0-1.063.476-1.063 1.062V6c0 .215.09.422.242.574A.77.77 0 0 0 2 6.801c0 3.054 1.816 5.687 4.422 6.894l-1.02 9.082a.969.969 0 0 0 .164.828c.184.25.473.395.786.395h.39a.975.975 0 0 0 .938-.695l.523-4.649L12 16.461l3.793 2.195.516 4.578.011.07a.975.975 0 0 0 .938.696h.39a.968.968 0 0 0 .786-.395.969.969 0 0 0 .164-.828l-1.02-9.082c2.606-1.207 4.418-3.84 4.41-6.894.23 0 .422-.082.575-.23A.804.804 0 0 0 22.8 6v-.137c0-.586-.477-1.062-1.063-1.062zM6.742 23.2h-.39a.176.176 0 0 1-.172-.23l1.011-8.962c.016.004.032.004.043.012.204.066.407.12.618.168.015.003.035.011.05.015l-1 8.895a.172.172 0 0 1-.16.101zm1.574-5.532l.352-3.133L11.203 16zm1.72-3.27h3.933L12 15.54zM12.795 16l2.532-1.465.352 3.133zm4.013-1.992l.996 8.89.015.075a.175.175 0 0 1-.172.227h-.39a.172.172 0 0 1-.16-.102l-1-8.895c.02-.004.035-.012.05-.015a6.53 6.53 0 0 0 .618-.168c.011-.008.027-.008.043-.012zM22 6a.852.852 0 0 0-.563.227.83.83 0 0 0-.238.574c0 2.808-1.715 5.226-4.152 6.261l-.008.004c-.05.02-.102.036-.152.055-.184.074-.367.14-.563.195-.015.008-.031.008-.047.016-.222.063-.449.113-.683.156-.387.07-.785.114-1.196.114H9.602c-.41 0-.809-.043-1.196-.114a7.574 7.574 0 0 1-.683-.156l-.047-.012a6.37 6.37 0 0 1-.563-.199c-.05-.02-.101-.031-.152-.055l-.008-.004C4.516 12.027 2.801 9.61 2.801 6.801a.79.79 0 0 0-.239-.57.795.795 0 0 0-.55-.231H2v-.137c0-.144.117-.261.262-.261 1.824 0 3.535-.852 4.691-2.336A6.364 6.364 0 0 1 12 .8c1.984 0 3.824.898 5.047 2.465 1.156 1.484 2.867 2.336 4.691 2.336.145 0 .262.117.262.261zm0 0"/>
    <path d="M17.531 8.855l-.293-.062a22.954 22.954 0 0 0-9.675 0l-.293.062c-.504.11-.872.56-.872 1.075v.574c0 .332.149.64.41.851.258.211.59.29.919.22a22.18 22.18 0 0 1 9.347 0c.074.019.153.027.23.027a1.098 1.098 0 0 0 1.094-1.098V9.93c0-.516-.363-.965-.867-1.075zm.07 1.649c0 .121-.07.195-.113.23a.29.29 0 0 1-.25.059 23.082 23.082 0 0 0-4.84-.516c-1.617 0-3.234.172-4.84.516a.299.299 0 0 1-.25-.059.305.305 0 0 1-.109-.23V9.93c0-.14.102-.262.239-.293l.289-.063a22.161 22.161 0 0 1 9.343 0l.293.063a.304.304 0 0 1 .239.293zm0 0"/>
</svg>
